X:1
T:Grapes
T:Grapes
T:Copyright © CPDL
T:Copyright © CPDL
T:Copyright © CPDL
T:Copyright © CPDL
Z:Copyright © CPDL
%%score 1 2 3
L:1/8
Q:1/4=180
M:2/2
K:F
V:1 treble nm="P1"
V:2 treble nm="P2"
V:3 bass nm="P3"
V:1
"^Editor: John Henry Fowler""^(  Revision:   4 - 5 - 2008  )""^Vivacissimo" z8 | %1
w: |
"^From \"English Lyrics\" -  Set 8 -  Number 6""^Words by Julian Sturgis""^from  \"Poems\" - (1894)" z8 | %2
w: |
"^Charles Hubert Hastings Parry" z8 |"^( 1848 - 1918 )" z8 |!f! A2 c2 !>!c C2 C | A2 c2 C2 z C | %6
w: ||Come. boy Bac- chus, a|bunch of grapes, The|
 F2 (GA) (BA) (GF) | A c3 z2 C2 | F2 A2!<(! A4- | A2 A2!<)! (!>!d4- | (3d2 c2 =B2 (3c3) B A2 | %11
w: bunch you _ dear- * est _|trea- sure~! 'T~will|fill my soul|_ with ex~\--|* * * * qui- site|
 G6 A2 | D2 E2 G3 F | E c3- c2 GE | A2!<(! =B2!<)! c4- | c2 F2!<(! A4-!<)! | A4!>(! G3 F!>)! | %17
w: shapes, For|well I know the|plea- sure _ Of a|rich ripe grape|_ slow pressed|_ in the|
!p! E8 | EE G2"^cresc. multo" A2 EE | F2 A2 !>!B2 F2 | G2 B2 !>!c3 G | A2 c2 _e2 F2 | %22
w: mouth|Bring- ing me dreams of the|lus- ty South, Of|sun- brown youth And|sun- bright mai- den|
!f! z2 F2 d3 c | (!>!dcBc d) F2 z | z2 G2 d3 c | (!>!dcBc d) G2 z | z2 D2 !>!=E4 | !>!F4 !>!G4 | %28
w: And all a|laugh~\-- * * * * \-~ing;|And all a|la~\-- * * * * \-~den|with grapes,|grapes, grapes,|
 !>!F4 !>!G4 | !>!c3 d c2 A2 | !>!c G3 z4 | z2 A2 d3 B | !>!c2 F2 z4 | z2 A2 d3 B | !>!c2 F2 z4 | %35
w: grapes, grapes,|grapes, be- yond all|mea- sure~!|And all a|laugh- ing|And all a|la- den|
 z4!ff! z2 c2 |"^allargando" !>!_e8 | !>!d8 |"^rit." !>!B8- | B3!<(! A G2!<)! c2 | !>!c F3 z4 | %41
w: with|grapes,|grapes,|grapes,|_ be- yond all|mea- sure.|
 z8 | z8 |] %43
w: ||
V:2
!ff! ([Afa]2 .[cc']2) !>![CAc]4 | ([DFd]2 .[Ff]2) !>![DF]4 | ([B,GB]2 .[Dd]2) D2 [C^F]2 | %3
 ([B,G]2 B2 D2) .[B,E]2 | ([A,F] A2) (C !>![FA] c2) (C | !>![A,F] A2) (C !>![FA] c2) (A, | %6
 !>![A,F] A2) (C !>![FA] c2) (C | !>![A,F] A2) (B, !>![FA] d2) C | %8
 !>![A,F] A2 (^C !>![FA] ^c2) (A, | !>![DF] A2) (D !>![FA] c2) (D | !>![EF] d2) (D !>![FA] d2) (D | %11
 [FG] d2) (C [FG] c2) (=B, | [FG] =B2) (D [FB] d2) (=B, | !>![CE] G2) (C !>![EG] c2) (C | %14
 [=B,D] G2) (G, !>![CE] A2) (A, | [F,C] F2) (C [FA] c2) (C | [B,D] A2) (A, =B, G2) (G, | %17
 [CE] G2) (G, [CE] G2) G, | .[^CE].G.G,.G .[CE].A.A,.E | .[DF].A.A,.A .[DF].B.B,.B | %20
 .[_DF].B.B,.B .[DF].c.C.c | .[FA].c.C.c .[GB]._e.[Fc].e | .[DBd]2 .[B,D]2 z2 [A,_EF]2 | %23
 .[DFd]2 .[B,D]2 z2 [B,DF]2 | .[B,DG]2 .[B,D]2 z2 D2 | .[Dd]2 .[B,D]2 z2 [B,DG]2 | %26
 .[B,DF]2 .[B,D]2 .[B,DE]2 .[B,DG]2 | .[A,DF]2 .D2 .[DFG]2 .[DFGd]2 | %28
 !>![CFA]2 .[CF]2 !>![B,FB]2 .[B,F]2 | !>![CFc]2 .[FA]2 !>![FAf]2 .[FA]2 | [Ec]3 G [Ee]3 c | %31
 !>![FAf]3 [Ee] !>![FBf]ede | [Fcf]ede [FBf]ede | [Fcf]ede [FBf]ede | [Fcf]ede cd[FB]c | %35
 .[FA].B.[EG].A!<(! FGF!<)!A | .[_EGB_e]2 ([B,GB]2 E2) [EGe]2 | .[^FA]2 ([A,FA]2 D2) [DFd]2 | %38
 .[GB]2 ([B,GB]2 D2 [D=FBd]2) | .[B,E]2 z2 z2 [CEc]2 | ([Afa]2 [cc']2) !>![CAc]4 | %41
 ([DFAd]2 [Ff]2) !>![FA]4 | ([A,FA]2 [Cc]2) z4 |] %43
V:3
 [A,C]4 ([F,,F,]2 [A,,A,]2) | [D,,D,]4 ([B,,,B,,]2 [D,,D,]2) | %2
 [G,,,G,,]3 [A,,,G,,] [B,,,B,,]3 [A,,,A,,] | ([G,,,G,,]3 [A,,,A,,] [B,,,B,,]2) [C,,C,]2 | %4
 .[F,,F,]2 .[C,,C,]2 .[A,,,A,,]2 .[C,,C,]2 | .[F,,F,]2 .[C,,C,]2 .[A,,,A,,]2 .[C,,C,]2 | %6
 .[F,,F,]2 .[C,,C,]2 .[A,,,A,,]2 .[C,,C,]2 | .[F,,F,]2 .[C,,C,]2 .[A,,,A,,]2 .[C,,C,]2 | %8
 .[D,,D,]2 .[F,,F,]2 .[A,,,A,,]2 .[^C,,^C,]2 | .[D,,D,]2 .[F,,F,]2 .[=C,,=C,]2 .[D,,D,]2 | %10
 .[_B,,,_B,,]2 .[D,,D,]2 .[A,,,A,,]2 .[D,,D,]2 | %11
 .[=B,,,=B,,]2!>(! .[D,,D,]2 .[A,,,A,,]2!>)! .[D,,D,]2 |!mf! .[G,,,G,,]2 .D,2 .G,2 .D,2 | %13
 .[G,,,G,,]2 .E,2 .G,2 .E,2 | ([F,,F,]2 G,,2) ([E,,E,]2 G,,2) | ([D,,D,]2 A,,2) ([C,,C,]2 A,,2) | %16
 ([=B,,,=B,,]2 G,,2) ([D,,D,]2 G,,2) | ([C,,C,]2 G,,2) .[C,,C,]2 .[E,,E,]2 | %18
!p!"^cresc." .B,,.G,,.B,,,.G,, .A,,.E,,.A,,,.E,, | .D,.A,,.D,,.A,, .B,,.F,,.B,,,.B,, | %20
 ._E,.B,,._E,,.B,, .C,.G,,.C,,.G,, | .F,.C,!<(!.F,,.F, [G,,G,]2 [A,,A,]2!<)! | %22
!f! [B,,B,]2 [F,,F,]2 [B,,,B,,]2 [F,,,F,,]2 | [B,,,B,,]2 [F,,F,]2 [B,,B,]2 [B,,,B,,]2 | %24
 [G,,,G,,]2 [D,,D,]2 [G,,G,]2 [D,,D,]2 | [G,,,G,,]2 [D,,D,]2 [G,,G,]2 [G,,,G,,]2 | %26
 [B,,,B,,]2 [D,,D,]2 [G,,,G,,]2 [B,,,B,,]2 | [D,,D,]2 [F,,F,]2 [B,,,B,,]2 [D,,D,]2 | %28
 [F,,F,]2 [A,,A,]2 [D,,D,]2 [F,,F,]2 | [A,,,A,,]2 [C,,C,]2 [F,,,F,,]2 [D,,D,]2 | %30
 [C,,C,]2 [G,,G,]2 [C,C]2 [C,,C,]2 | [D,,D,]2 [F,,F,]2 [B,,,B,,]2 [D,,D,]2 | %32
 [A,,,A,,]2 [C,,C,]2 [G,,,G,,]2 [B,,,B,,]2 | [A,,,A,,]2 [C,,C,]2 [G,,,G,,]2 [B,,,B,,]2 | %34
!ff! [A,,,A,,]2 [F,,F,]2 z2 (!>!D2 | C2) B,2!<(! A,2!<)! F,2 | %36
"^allargando" .[_E,G,]2 ([C,,C,]2 [_E,,E,]2) [C,,C,]2 | .[^E,G,]2 ([C,,C,]2 [^F,,F,]2) [D,,D,]2 | %38
"^rit." .[G,B,]2 ([G,,,G,,]2 [B,,,B,,]2 [G,,,G,,]2) | .[C,,C,]2 z2 z2"^8" C,,2 | %40
!ff!"^a tempo" [A,C]4 ([F,,F,]2 [A,,A,]2) | [D,,D,]2 z2 ([B,,,B,,]2 [D,,D,]2) | %42
 [F,,,F,,]4 !>![F,,F,]4 |] %43

